X: 36228
T: Scully Casey's
R: jig
M: 6/8
K: Ddorian
cBc cAG|EcB cde|dcA A2 G|Ade ged|
cBc cAG|EcB cde|dcA AGE|1 EDD D2 B:|2 EDD D2 d||
e2 g ged|cAB cde|eaa age|edd d2 g|
egg ged|cAB cde|dcA AGE|1 EDD D2 d:|2 EDD D2 B||

